images/icons/apple-music.svg

<svg fill="none" height="24" viewBox="0 0 24 24" width="24" xmlns="http://www.w3.org/2000/svg" xmlns:xlink="http://www.w3.org/1999/xlink"><linearGradient id="a" gradientUnits="userSpaceOnUse" x1="11.8356" x2="11.8356" y1="23.5795" y2=".510181"><stop offset="0" stop-color="#fa233b"/><stop offset="1" stop-color="#fb5c74"/></linearGradient><clipPath id="b"><path d="m0 0h24v24h-24z"/></clipPath><g clip-path="url(#b)" clip-rule="evenodd" fill-rule="evenodd"><path d="m23.6712 7.40384c0-.28274 0-.56548 0-.84822 0-.23672-.0033-.47672-.0098-.71343-.0132-.51945-.0461-1.04219-.1381-1.55507-.0921-.51945-.2466-1.00602-.4866-1.47945-.2367-.46356-.5457-.89096-.914-1.25918-.3682-.36822-.7956-.677257-1.2591-.913969-.4735-.24-.9568-.394521-1.4762-.486576-.5129-.0920546-1.0356-.1216436-1.5551-.13808199-.24-.00328767-.48-.00657534-.7167-.00986301-.2827 0-.5655 0-.8482 0h-8.86356c-.28274 0-.56548 0-.84822 0-.23672 0-.47672.00328767-.71343.00986301-.51945.01315069-1.04219.04602739-1.55507.13808199-.51945.095343-1.00602.246576-1.47616.489863-.46685.236713-.89096.545752-1.25918.913972s-.680547.79233-.917259 1.25918c-.24.47342-.394521.95671-.486576 1.47945-.0920546.51288-.1216436 1.03562-.13808199 1.55507-.00328767.23671-.00657534.47342-.00986301.71014v.84822 8.86026.8482c0 .2367.00328767.4767.00986301.7135.01315069.5194.04602739 1.0421.13808199 1.555.092055.5195.246576 1.006.486576 1.4795.236712.4635.545749.8909.913969 1.2592.36822.3682.79562.6772 1.25918.9139.47343.24.95671.3945 1.47617.4866.51287.0921 1.03561.1216 1.55506.1381.23672.0066.47672.0098.71343.0098.28274.0033.56548 0 .84822 0h8.86025.8482c.2368 0 .4768-.0032.7135-.0098.5194-.0132 1.0422-.046 1.555-.1381.5195-.0921 1.0061-.2466 1.4762-.4866.4636-.2367.891-.5457 1.2592-.9139.3682-.3683.6772-.7924.9139-1.2592.24-.4735.3946-.9567.4866-1.4795.0921-.5129.1217-1.0356.1381-1.555.0066-.2368.0099-.4768.0099-.7135.0033-.2827 0-.5655 0-.8482z" fill="url(#a)"/><path d="m16.7342 3.61643c-.0559.00658-.5655.09535-.6279.1085l-7.03566 1.42027h-.00329c-.18411.03945-.32877.10521-.43726.19726-.13479.11178-.20712.27288-.23671.45699-.00658.03945-.01644.11835-.01644.23671v8.80434c0 .2072-.01644.4044-.15452.5754-.13808.1709-.31233.2203-.51288.263-.15452.0296-.30575.0625-.46027.0921-.58192.1183-.96.1972-1.30192.3287-.32877.1282-.57205.2893-.76931.4932-.38795.4044-.54576.9567-.48987 1.4728.04603.4406.24329.8614.58521 1.1705.23014.2104.51616.3715.85479.4372.35178.0691.72329.046 1.26904-.0657.28932-.0592.5622-.1513.82192-.3025.25644-.1512.47671-.3518.64767-.5984.17096-.2465.28274-.5194.34521-.812.06246-.2992.0789-.5721.0789-.8712v-7.63402c0-.40767.11507-.51616.44713-.59835 0 0 5.84876-1.18028 6.12166-1.23288.3813-.07233.5589.03617.5589.43397v5.21428c0 .2071-.0033.4142-.1414.5852-.1381.1709-.3123.2202-.5129.263-.1545.0296-.3057.0625-.4602.092-.582.1184-.96.1973-1.302.3288-.3287.1282-.572.2893-.7693.4932-.3879.4043-.5589.9567-.503 1.4728.046.4406.2565.8614.5984 1.1705.2301.2104.5161.3649.8548.4339.3517.0691.7233.046 1.269-.0657.2893-.0592.5622-.1447.8219-.2992.2565-.1512.4767-.3518.6477-.5984.171-.2465.2827-.5194.3452-.812.0625-.2992.0658-.5721.0658-.8713v-11.1616c-.0033-.40438-.217-.65424-.5984-.62137z" fill="#fff"/></g></svg>

<svg width="24" height="24" viewBox="0 0 24 24" fill="none" xmlns="http://www.w3.org/2000/svg">
<g clip-path="url(#clip0_1432_8531)">
<path fill-rule="evenodd" clip-rule="evenodd" d="M23.6712 7.40384C23.6712 7.1211 23.6712 6.83836 23.6712 6.55562C23.6712 6.3189 23.6679 6.0789 23.6614 5.84219C23.6482 5.32274 23.6153 4.8 23.5233 4.28712C23.4312 3.76767 23.2767 3.2811 23.0367 2.80767C22.8 2.34411 22.491 1.91671 22.1227 1.54849C21.7545 1.18027 21.3271 0.871233 20.8636 0.634521C20.3901 0.394521 19.9068 0.24 19.3874 0.147945C18.8745 0.0558904 18.3518 0.0263014 17.8323 0.00986301C17.5923 0.00657534 17.3523 0.00328767 17.1156 0C16.8329 0 16.5501 0 16.2674 0H7.40384C7.1211 0 6.83836 0 6.55562 0C6.3189 0 6.0789 0.00328767 5.84219 0.00986301C5.32274 0.0230137 4.8 0.0558904 4.28712 0.147945C3.76767 0.243288 3.2811 0.394521 2.81096 0.637808C2.34411 0.874521 1.92 1.18356 1.55178 1.55178C1.18356 1.92 0.871233 2.34411 0.634521 2.81096C0.394521 3.28438 0.24 3.76767 0.147945 4.29041C0.0558904 4.80329 0.0263014 5.32603 0.00986301 5.84548C0.00657534 6.08219 0.00328767 6.3189 0 6.55562C0 6.83836 0 7.1211 0 7.40384V16.2641C0 16.5468 0 16.8296 0 17.1123C0 17.349 0.00328767 17.589 0.00986301 17.8258C0.0230137 18.3452 0.0558904 18.8679 0.147945 19.3808C0.24 19.9003 0.394521 20.3868 0.634521 20.8603C0.871233 21.3238 1.18027 21.7512 1.54849 22.1195C1.91671 22.4877 2.34411 22.7967 2.80767 23.0334C3.2811 23.2734 3.76438 23.4279 4.28384 23.52C4.79671 23.6121 5.31945 23.6416 5.8389 23.6581C6.07562 23.6647 6.31562 23.6679 6.55233 23.6679C6.83507 23.6712 7.11781 23.6679 7.40055 23.6679H16.2608C16.5436 23.6679 16.8263 23.6679 17.109 23.6679C17.3458 23.6679 17.5858 23.6647 17.8225 23.6581C18.3419 23.6449 18.8647 23.6121 19.3775 23.52C19.897 23.4279 20.3836 23.2734 20.8537 23.0334C21.3173 22.7967 21.7447 22.4877 22.1129 22.1195C22.4811 21.7512 22.7901 21.3271 23.0268 20.8603C23.2668 20.3868 23.4214 19.9036 23.5134 19.3808C23.6055 18.8679 23.6351 18.3452 23.6515 17.8258C23.6581 17.589 23.6614 17.349 23.6614 17.1123C23.6647 16.8296 23.6614 16.5468 23.6614 16.2641L23.6712 7.40384Z" fill="url(#paint0_linear_1432_8531)"/>
<path fill-rule="evenodd" clip-rule="evenodd" d="M16.7342 3.61643C16.6783 3.62301 16.1687 3.71178 16.1063 3.72493L9.07064 5.1452H9.06735C8.88324 5.18465 8.73858 5.25041 8.63009 5.34246C8.4953 5.45424 8.42297 5.61534 8.39338 5.79945C8.3868 5.8389 8.37694 5.9178 8.37694 6.03616C8.37694 6.03616 8.37694 13.223 8.37694 14.8405C8.37694 15.0477 8.3605 15.2449 8.22242 15.4159C8.08434 15.5868 7.91009 15.6362 7.70954 15.6789C7.55502 15.7085 7.40379 15.7414 7.24927 15.771C6.66735 15.8893 6.28927 15.9682 5.94735 16.0997C5.61858 16.2279 5.3753 16.389 5.17804 16.5929C4.79009 16.9973 4.63228 17.5496 4.68817 18.0657C4.7342 18.5063 4.93146 18.9271 5.27338 19.2362C5.50352 19.4466 5.78954 19.6077 6.12817 19.6734C6.47995 19.7425 6.85146 19.7194 7.39721 19.6077C7.68653 19.5485 7.95941 19.4564 8.21913 19.3052C8.47557 19.154 8.69584 18.9534 8.8668 18.7068C9.03776 18.4603 9.14954 18.1874 9.21201 17.8948C9.27447 17.5956 9.29091 17.3227 9.29091 17.0236V9.38958C9.29091 8.98191 9.40598 8.87342 9.73804 8.79123C9.73804 8.79123 15.5868 7.61095 15.8597 7.55835C16.241 7.48602 16.4186 7.59452 16.4186 7.99232V13.2066C16.4186 13.4137 16.4153 13.6208 16.2772 13.7918C16.1391 13.9627 15.9649 14.012 15.7643 14.0548C15.6098 14.0844 15.4586 14.1173 15.3041 14.1468C14.7221 14.2652 14.3441 14.3441 14.0021 14.4756C13.6734 14.6038 13.4301 14.7649 13.2328 14.9688C12.8449 15.3731 12.6739 15.9255 12.7298 16.4416C12.7758 16.8822 12.9863 17.303 13.3282 17.6121C13.5583 17.8225 13.8443 17.977 14.183 18.046C14.5347 18.1151 14.9063 18.092 15.452 17.9803C15.7413 17.9211 16.0142 17.8356 16.2739 17.6811C16.5304 17.5299 16.7506 17.3293 16.9216 17.0827C17.0926 16.8362 17.2043 16.5633 17.2668 16.2707C17.3293 15.9715 17.3326 15.6986 17.3326 15.3994V4.2378C17.3293 3.83342 17.1156 3.58356 16.7342 3.61643Z" fill="white"/>
</g>
<defs>
<linearGradient id="paint0_linear_1432_8531" x1="11.8356" y1="23.5795" x2="11.8356" y2="0.510181" gradientUnits="userSpaceOnUse">
<stop stop-color="#FA233B"/>
<stop offset="1" stop-color="#FB5C74"/>
</linearGradient>
<clipPath id="clip0_1432_8531">
<rect width="24" height="24" fill="white"/>
</clipPath>
</defs>
</svg>
